!!!OTL: ICH HAB EIN BAECHLEIN FUNDEN
!!!ARE: Europa, Mitteleuropa, Deutschland
!!!SCT: F0919
!!!YEM: Copyright 1995, estate of Helmut Schaffrath.
**kern
*ICvox
*Ivox
*M4/4
*k[b-]
*F:
{4a
=1
4b-
4g
4g
8a
8b-
=2
4b-
4a
4a}
{4cc
=3
8cc
8b-
4a
4g
8g
8a
=4
4f
2r}
{4a
=5
4b-
4g
4g
8a
8b-
=6
4b-
4a
4a}
{4cc
=7
8cc
8b-
4a
4g
8g
8a
=8
4f
2r}
{4a
=9
4g
4g
4g
4g
=10
4g
4cc
4cc}
{4b-
=11
4a
4cc#
4dd
4cc
=12
2bn
4r}
{4g
=13
4cc
4cc
4g
4a
=14
4b-
4cc
4a}
{4f
=15
4g
4g
4e
4e
=16
4f
2r}
==
!!!AGN: Liebes - Lied
!!!ONB: ESAC (Essen Associative Code) Database: FINK
!!!AMT: simple quadruple
!!!AIN: vox
!!!EED: Helmut Schaffrath
!!!EEV: 1.0
*-
